X:4219
T:Misir Lou
O:england
M:4/4
L:1/8
Q:65
C:Trad Greek
S:Caranvanserai
K:Gm
d2 d2 d/2g/2 d d2|d/2g/2d a/2b/2a d/2g/2d a/2b/2a|
M:3/4 L:1/8 Q:65
gd/2g/2 dd d/2c/2B/2c/2|
M:4/4 L:1/8 Q:65
d8||d3 e dc BA|G4 z c BA|G4 z c BA|
M:2/4 L:1/8 Q:65
Gc BA|
M:4/4 L:1/8 Q:65
G4 z F GA|B3 B c3 B/2c/2|d4 z g fe|dgfe dcBc|d6 z d|
b3 b a3 a|g3 g f4|z g gg gfed|
c4 z c Bc|d3 d a3 a|g4 z b ag|fgfe dcBA|G8||


